brandFactory_export/3.Masa/Mail correo virus_3Masa.svg

<?xml version="1.0" encoding="UTF-8"?>
<svg width="24px" height="24px" viewBox="0 0 24 24" version="1.1" xmlns="http://www.w3.org/2000/svg" xmlns:xlink="http://www.w3.org/1999/xlink">
    <title>3.Masa/Mail correo virus_3Masa</title>
    <g id="Symbols" stroke="none" stroke-width="1" fill="none" fill-rule="evenodd">
        <g id="3.Masa/Mail-correo-virus_3Masa" fill="#5CB615" fill-rule="nonzero">
            <path d="M9.00168067,10.3260504 C7.41176471,10.3260504 7.41176471,10.6689076 7.41176471,11.0991597 C7.41176471,11.1193277 7.41512605,11.1361345 7.41512605,11.1563025 C7.86218487,11.0016807 8.37983193,10.9176471 8.99831933,10.9176471 C9.62016807,10.9176471 10.1411765,11.0016807 10.5882353,11.1596639 C10.5882353,11.1361345 10.5915966,11.1226891 10.5915966,11.0991597 C10.5915966,10.6689076 10.5915966,10.3260504 9.00168067,10.3260504 L9.00168067,10.3260504 Z M13.394958,14.2117647 C13.7445378,14.2117647 14.0235294,14.4907563 14.0235294,14.8403361 L14.0235294,15.7680672 C14.0235294,16.1142857 13.7411765,16.3966387 13.394958,16.3932773 C13.0487395,16.3932773 12.7663866,16.1142857 12.7663866,15.7680672 L12.7663866,15.4655462 L12.6117647,15.4655462 C12.605042,16.1478992 12.5512605,16.8067227 12.389916,17.394958 L13.2739496,17.6605042 C13.5529412,17.7445378 13.7378151,18.0033613 13.7210084,18.292437 L13.6436975,19.6907563 C13.6235294,20.0235294 13.3478992,20.2823529 13.0151261,20.2823529 L12.9815126,20.2823529 C12.6352941,20.2655462 12.3697479,19.9697479 12.3865546,19.6235294 L12.4369748,18.7159664 L11.8453782,18.5378151 C11.3142857,19.2235294 10.4403361,19.6571429 9.00168067,19.6571429 C7.55630252,19.6571429 6.6789916,19.2201681 6.1512605,18.5310924 L5.5394958,18.7159664 L5.58991597,19.6235294 C5.60672269,19.9697479 5.34117647,20.2655462 4.99495798,20.2823529 L4.95798319,20.2823529 C4.62521008,20.2823529 4.34957983,20.0235294 4.32941176,19.6907563 L4.25210084,18.292437 C4.23529412,18.0033613 4.42016807,17.7411765 4.69915966,17.6605042 L5.60336134,17.3882353 C5.44537815,16.8 5.39159664,16.1445378 5.38487395,15.4655462 L5.2302521,15.4655462 L5.2302521,15.7680672 C5.2302521,16.1142857 4.94789916,16.3966387 4.60168067,16.3932773 C4.25546218,16.3932773 3.97310924,16.1142857 3.97310924,15.7680672 L3.97310924,14.8403361 C3.97310924,14.4941176 4.25546218,14.2117647 4.60168067,14.2117647 L5.42521008,14.2117647 C5.47563025,13.6605042 5.58319328,13.1226891 5.79159664,12.6453782 L4.69915966,12.3159664 C4.42016807,12.2352941 4.23529412,11.9731092 4.2487395,11.6840336 L4.32605042,10.2857143 C4.34621849,9.9394958 4.63865546,9.71428571 4.98823529,9.69411765 C5.33445378,9.71428571 5.6,10.0067227 5.58319328,10.3529412 L5.53277311,11.2605042 L6.18151261,11.4554622 C6.16134454,11.3378151 6.1512605,11.2168067 6.1512605,11.0991597 C6.1512605,9.07226891 8.14789916,9.07226891 9.00168067,9.07226891 C9.85546218,9.07226891 11.8521008,9.07226891 11.8521008,11.0991597 C11.8521008,11.2201681 11.8386555,11.3344538 11.8252101,11.4453782 L12.4369748,11.2638655 L12.3865546,10.3596639 C12.3697479,10.0134454 12.6352941,9.71764706 12.9815126,9.70084034 C13.3411765,9.7210084 13.6268908,9.94621849 13.6436975,10.292437 L13.7210084,11.6907563 C13.7378151,11.9798319 13.5495798,12.2420168 13.2739496,12.3260504 L12.2016807,12.6453782 C12.410084,13.1260504 12.5210084,13.6638655 12.5714286,14.2184874 C12.5714286,14.2117647 13.394958,14.2117647 13.394958,14.2117647 Z M8.95798319,13.1764706 C8.61176471,13.1764706 8.32941176,13.4554622 8.32941176,13.8016807 L8.32941176,17.2773109 C8.32941176,17.6235294 8.61176471,17.902521 8.95798319,17.902521 C9.30420168,17.902521 9.58655462,17.6235294 9.58655462,17.2773109 L9.58655462,13.8016807 C9.58655462,13.4554622 9.30756303,13.1764706 8.95798319,13.1764706 L8.95798319,13.1764706 Z M9.36134454,22.1747899 C10.3159664,22.1579832 13.5630252,21.902521 15.3243697,19.307563 C16.1310924,18.1210084 16.5411765,16.5714286 16.5411765,14.6991597 C16.5411765,14.2453782 16.5176471,13.805042 16.4705882,13.394958 C15.8218487,7.77815126 10.8369748,7.22352941 9.32773109,7.18319328 C9.14957983,7.17983193 8.94453782,7.17647059 8.74957983,7.17647059 L8.57142857,7.17647059 C7.03865546,7.19327731 2.02016807,7.6907563 1.49915966,13.5865546 C1.46890756,13.9260504 1.45210084,14.2823529 1.45210084,14.6521008 C1.45210084,21.5394958 6.94453782,22.1546218 8.62857143,22.1781513 C8.87731092,22.1815126 9.14285714,22.1781513 9.36134454,22.1747899 Z M11.6806723,1.73781513 L3.49243697,6.91092437 C3.39831933,6.97815126 3.32773109,7.13277311 3.28403361,7.34453782 C4.84033613,6.23529412 6.74621849,5.7512605 8.55462185,5.73445378 C8.81680672,5.73109244 9.11260504,5.73445378 9.36134454,5.74117647 C12.4134454,5.81512605 15.7815126,7.18319328 17.2436975,10.6319328 L22.1546218,7.5697479 C22.1277311,7.24369748 22.0336134,6.99831933 21.8823529,6.88739496 L21.7882353,6.82689076 L13.7512605,1.75798319 C13.4420168,1.55966387 13.0789916,1.45210084 12.7092437,1.44537815 C12.1176471,1.44537815 11.687395,1.73445378 11.6806723,1.73781513 L11.6806723,1.73781513 Z M23.610084,18.5176471 C23.6403361,18.7663866 23.6739496,19.5327731 23.1563025,20.1546218 C22.8739496,20.4941176 22.3294118,20.9008403 21.3243697,20.9210084 C20.8739496,20.9277311 18.1714286,20.9310924 15.8722689,20.9310924 C13.6672269,23.3344538 10.410084,23.6 9.38823529,23.6168067 C9.12941176,23.6201681 8.86722689,23.6235294 8.60504202,23.6201681 C7.1697479,23.6 -1.77635684e-15,23.0689076 -1.77635684e-15,14.6521008 C-1.77635684e-15,14.2352941 0.0168067227,13.8386555 0.0504201681,13.4588235 C0.228571429,11.4722689 0.870588235,9.9394958 1.78487395,8.77310924 L1.78487395,7.70420168 C1.80840336,6.56470588 2.28235294,5.99663866 2.67226891,5.71428571 L2.82689076,5.61344538 L10.8739496,0.537815126 C11.4184874,0.188235294 12.0504202,0.00336134454 12.6957983,0 C13.7478992,0 14.4840336,0.500840336 14.5647059,0.561344538 L22.6991597,5.69411765 C23.1226891,5.99327731 23.5932773,6.56470588 23.6201681,7.68739496 L23.610084,18.5176471 L23.610084,18.5176471 Z" id="Mail-correo-virus_3Masa"></path>
        </g>
    </g>
</svg>

<svg width="24" height="24" viewBox="0 0 24 24" xmlns="http://www.w3.org/2000/svg"><path d="M9.002 10.326c-1.59 0-1.59.343-1.59.773 0 .02.003.037.003.057.447-.154.965-.238 1.583-.238.622 0 1.143.084 1.59.242 0-.024.004-.037.004-.06 0-.431 0-.774-1.59-.774zm4.393 3.886c.35 0 .629.279.629.628v.928a.625.625 0 01-.629.625.627.627 0 01-.629-.625v-.302h-.154c-.007.682-.06 1.34-.222 1.929l.884.266a.622.622 0 01.447.631l-.077 1.399a.63.63 0 01-.629.591h-.033a.628.628 0 01-.595-.658l.05-.908-.592-.178c-.53.686-1.405 1.12-2.843 1.12-1.446 0-2.323-.438-2.85-1.127l-.613.185.05.908a.628.628 0 01-.594.658h-.037a.63.63 0 01-.629-.591l-.077-1.399a.62.62 0 01.447-.631l.904-.273c-.158-.588-.211-1.243-.218-1.922H5.23v.302a.625.625 0 01-.628.625.627.627 0 01-.629-.625v-.928a.63.63 0 01.629-.628h.823c.05-.551.158-1.09.367-1.567l-1.093-.329a.626.626 0 01-.45-.632l.077-1.398c.02-.347.313-.572.662-.592a.63.63 0 01.595.659l-.05.908.649.194a2.125 2.125 0 01-.03-.356c0-2.027 1.996-2.027 2.85-2.027.853 0 2.85 0 2.85 2.027 0 .121-.013.235-.027.346l.612-.181-.05-.904a.628.628 0 01.595-.66c.36.021.645.246.662.592l.077 1.399a.63.63 0 01-.447.635l-1.072.32c.208.48.319 1.018.37 1.572 0-.006.823-.006.823-.006zm-4.437-1.036a.627.627 0 00-.629.626v3.475c0 .347.283.626.629.626a.627.627 0 00.629-.626v-3.475a.625.625 0 00-.629-.626zm.403 8.999c.955-.017 4.202-.272 5.963-2.867.807-1.187 1.217-2.737 1.217-4.609 0-.454-.023-.894-.07-1.304-.65-5.617-5.634-6.171-7.143-6.212a31.318 31.318 0 00-.578-.007H8.57c-1.532.017-6.55.515-7.072 6.41-.03.34-.047.696-.047 1.066 0 6.887 5.493 7.503 7.177 7.526.248.004.514 0 .732-.003zm2.32-20.437L3.492 6.91c-.094.067-.164.222-.208.434 1.556-1.11 3.462-1.594 5.27-1.61.263-.004.559 0 .807.006 3.052.074 6.42 1.442 7.883 4.89l4.91-3.061c-.026-.326-.12-.572-.272-.683l-.094-.06-8.037-5.069a2.001 2.001 0 00-1.042-.313c-.591 0-1.022.29-1.028.293zm11.93 16.78c.03.248.063 1.015-.455 1.637-.282.34-.827.746-1.832.766-.45.007-3.153.01-5.452.01-2.205 2.403-5.462 2.669-6.484 2.686a30.35 30.35 0 01-.783.003C7.17 23.6 0 23.07 0 14.652c0-.417.017-.813.05-1.193.179-1.987.82-3.52 1.735-4.686V7.704c.023-1.14.497-1.707.887-1.99l.155-.1L10.874.537A3.403 3.403 0 0112.696 0c1.052 0 1.788.5 1.869.561l8.134 5.133c.424.3.894.87.921 1.993l-.01 10.83z" fill="#5CB615" fill-rule="nonzero"/></svg>
